X:1
T:56
L:1/8
Q:1/4=114
M:2/4
K:Gmin
V:1 treble nm="Piano" snm="Pno."
V:1
!p!"^Moderato" ((B/c/B/c/ d!>!d- | dc/B/ !breath!c2)) | (A/(B/A/B/ c!>!c- | cB/A/ !breath!B2)) | %4
 ((G/A/G/A/) B)((B | A)G ^F!breath!D) |!<(! ((Gd!<)!!>(! dc | !breath!A4))!>)! | ((B/c/B/c/ dd- | %9
 dc/B/ !breath!c2)) | (A/(B/A/B/ c!>!c | cB/A/ !breath!B2)) | ((G/A/G/A/) B)((B | %13
 AG ^F!breath!D)) | ((GB BA | G2- G)) z |] %16

